packages/sources/assets/src/assets/flag-gd.svg

<svg width="28" height="20" viewBox="0 0 28 20" fill="none" xmlns="http://www.w3.org/2000/svg">
<rect width="28" height="20" rx="2" fill="white"/>
<mask id="mask0_503_4489" style="mask-type:alpha" maskUnits="userSpaceOnUse" x="0" y="0" width="28" height="20">
<rect width="28" height="20" rx="2" fill="white"/>
</mask>
<g mask="url(#mask0_503_4489)">
<rect width="28" height="20" fill="#E42235"/>
<rect x="2.6665" y="2.66669" width="22.6667" height="14.6667" fill="#079B77"/>
<mask id="mask1_503_4489" style="mask-type:alpha" maskUnits="userSpaceOnUse" x="2" y="2" width="24" height="16">
<rect x="2.6665" y="2.66669" width="22.6667" height="14.6667" fill="white"/>
</mask>
<g mask="url(#mask1_503_4489)">
<path fill-rule="evenodd" clip-rule="evenodd" d="M4.39322 10.1318C4.77072 10.736 5.3127 11.1348 5.8175 11.2371C6.09541 11.2934 5.58658 10.0189 5.80832 9.88036C5.99751 9.76214 6.90777 10.822 6.98747 10.6009C7.17087 10.0921 7.06268 9.37167 6.65468 8.71872C6.06935 7.782 6.0465 8.40025 4.46411 7.72919C4.62956 8.68887 3.80789 9.19511 4.39322 10.1318Z" fill="#FFD938"/>
<path fill-rule="evenodd" clip-rule="evenodd" d="M13.9998 10L25.3332 2.66669H2.6665L13.9998 10ZM13.9998 10L2.6665 17.3334H25.3332L13.9998 10Z" fill="#FFD93B"/>
<path fill-rule="evenodd" clip-rule="evenodd" d="M13.9998 13.3334C15.8408 13.3334 17.3332 11.841 17.3332 10C17.3332 8.15907 15.8408 6.66669 13.9998 6.66669C12.1589 6.66669 10.6665 8.15907 10.6665 10C10.6665 11.841 12.1589 13.3334 13.9998 13.3334Z" fill="url(#paint0_linear_503_4489)"/>
<path fill-rule="evenodd" clip-rule="evenodd" d="M13.9997 11.0284L12.4322 12.1574L13.0216 10.3178L11.4635 9.176L13.3952 9.16805L13.9997 7.33337L14.6042 9.16805L16.5358 9.176L14.9777 10.3178L15.5671 12.1574L13.9997 11.0284Z" fill="#FFD938"/>
</g>
</g>
<defs>
<linearGradient id="paint0_linear_503_4489" x1="10.6665" y1="6.66669" x2="10.6665" y2="13.3334" gradientUnits="userSpaceOnUse">
<stop stop-color="#E21C30"/>
<stop offset="1" stop-color="#CE1225"/>
</linearGradient>
</defs>
</svg>

<svg width="28" height="20" fill="none" xmlns="http://www.w3.org/2000/svg"><rect width="28" height="20" rx="2" fill="#fff"/><mask id="a" style="mask-type:alpha" maskUnits="userSpaceOnUse" x="0" y="0" width="28" height="20"><rect width="28" height="20" rx="2" fill="#fff"/></mask><g mask="url(#a)"><path fill="#E42235" d="M0 0h28v20H0z"/><path fill="#079B77" d="M2.667 2.667h22.667v14.667H2.667z"/><mask id="b" style="mask-type:alpha" maskUnits="userSpaceOnUse" x="2" y="2" width="24" height="16"><path fill="#fff" d="M2.667 2.667h22.667v14.667H2.667z"/></mask><g mask="url(#b)" fill-rule="evenodd" clip-rule="evenodd"><path d="M4.393 10.132c.378.604.92 1.003 1.425 1.105.277.056-.231-1.218-.01-1.357.19-.118 1.1.942 1.18.72.183-.508.075-1.228-.333-1.881-.586-.937-.609-.319-2.19-.99.165.96-.657 1.466-.072 2.403Z" fill="#FFD938"/><path d="m14 10 11.333-7.333H2.667L14 10Zm0 0L2.666 17.333h22.667L14 10Z" fill="#FFD93B"/><path d="M14 13.333a3.333 3.333 0 1 0 0-6.666 3.333 3.333 0 0 0 0 6.666Z" fill="url(#c)"/><path d="m14 11.028-1.568 1.13.59-1.84-1.559-1.142 1.932-.008L14 7.333l.604 1.835 1.932.008-1.558 1.142.59 1.84L14 11.027Z" fill="#FFD938"/></g></g><defs><linearGradient id="c" x1="10.666" y1="6.667" x2="10.666" y2="13.333" gradientUnits="userSpaceOnUse"><stop stop-color="#E21C30"/><stop offset="1" stop-color="#CE1225"/></linearGradient></defs></svg>
